source/img/icons/icon-support.svg

<svg width="57" height="57" viewBox="0 0 57 57" fill="none" xmlns="http://www.w3.org/2000/svg">
<path d="M18.025 13.0626C17.6416 12.5974 16.9505 12.5334 16.4843 12.9153C16.4825 12.9168 16.4731 12.9245 16.4714 12.926C16.0075 13.3109 15.9463 13.9952 16.3297 14.4603C16.5453 14.7218 16.8581 14.8565 17.1734 14.8565C17.4191 14.8565 17.6663 14.7748 17.8705 14.6076C17.8722 14.6061 17.8816 14.5984 17.8834 14.5969C18.3472 14.212 18.4085 13.5277 18.025 13.0626Z" fill="white"/>
<path d="M28.984 8.4386C26.0117 8.4386 23.1548 9.08468 20.4931 10.3591C19.9483 10.62 19.718 11.273 19.9788 11.818C20.2396 12.3626 20.8927 12.593 21.4375 12.3321C23.8022 11.2001 26.3412 10.6261 28.984 10.6261C38.6335 10.6261 46.484 18.4765 46.484 28.1261C46.484 30.1926 46.1277 32.2148 45.4248 34.1367C45.2174 34.704 45.5091 35.3321 46.0764 35.5395C46.2003 35.5848 46.3272 35.6063 46.452 35.6063C46.8981 35.6063 47.3171 35.3312 47.4793 34.888C48.2704 32.7246 48.6715 30.4497 48.6715 28.1261C48.6715 17.2704 39.8398 8.4386 28.984 8.4386Z" fill="white"/>
<path d="M56.6237 34.3293L55.3614 33.1897C53.9311 31.8985 53.1109 30.0528 53.1109 28.1259C53.1109 26.1991 53.9312 24.3534 55.3614 23.0621L56.6237 21.9225C56.9673 21.6122 57.0783 21.1192 56.901 20.6916L53.977 13.6421C53.7997 13.2147 53.3738 12.9445 52.9109 12.9688L51.2109 13.0556C49.2885 13.155 47.4041 12.4292 46.0427 11.0677C44.6812 9.70632 43.9567 7.82256 44.055 5.89953L44.1417 4.19952C44.1653 3.73752 43.8957 3.31074 43.4685 3.13344L36.4188 0.209417C35.9912 0.032448 35.4982 0.143135 35.1879 0.486791L34.0484 1.74909C32.7571 3.17927 30.9115 3.99958 28.9845 3.99958C27.0576 3.99958 25.212 3.17927 23.9207 1.74909L22.7811 0.486791C22.4708 0.143026 21.9777 0.0322293 21.5502 0.209417L14.5007 3.13344C14.0734 3.31074 13.8038 3.73752 13.8275 4.19952L13.9142 5.89953C14.0124 7.82256 13.2878 9.70632 11.9264 11.0677C10.5649 12.4292 8.68072 13.1549 6.75824 13.0556L5.05822 12.9688C4.59502 12.946 4.16934 13.2147 3.99215 13.6421L1.06801 20.6917C0.890606 21.1193 1.00173 21.6123 1.34539 21.9226L2.60768 23.0623C4.03798 24.3535 4.85818 26.1992 4.85818 28.126C4.85818 30.0529 4.03787 31.8986 2.60768 33.1899L1.34539 34.3293C1.00173 34.6396 0.890715 35.1327 1.06801 35.5602L3.99204 42.6098C4.16923 43.037 4.59557 43.3067 5.05812 43.2831L6.75813 43.1962C8.68083 43.0969 10.5649 43.8225 11.9263 45.1841C13.2878 46.5455 14.0123 48.4293 13.9141 50.3523L13.8274 52.0523C13.8037 52.5143 14.0733 52.9411 14.5006 53.1184L21.5501 56.0424C21.9779 56.2195 22.4707 56.1087 22.781 55.7651L23.9206 54.5028C25.2119 53.0726 27.0574 52.2523 28.9844 52.2523C30.9114 52.2523 32.757 53.0726 34.0483 54.5028L35.1878 55.7651C35.3997 55.9998 35.6966 56.1259 35.9999 56.1259C36.1408 56.1259 36.2831 56.0986 36.4187 56.0424L43.4683 53.1184C43.8955 52.9411 44.1651 52.5143 44.1415 52.0523L44.0547 50.3523C43.9565 48.4293 44.6811 46.5455 46.0426 45.1841C47.404 43.8226 49.2876 43.097 51.2107 43.1962L52.9107 43.2831C53.3739 43.308 53.7996 43.0371 53.9768 42.6098L56.9008 35.5602C57.0784 35.1327 56.9674 34.6396 56.6237 34.3293ZM52.2521 41.0591L51.3225 41.0115C48.7826 40.8826 46.2943 41.8387 44.4958 43.6372C42.6975 45.4356 41.7405 47.9238 41.8703 50.4638L41.9178 51.3933L36.2942 53.7259L35.672 53.0368C33.9669 51.1479 31.5293 50.0647 28.9845 50.0647C26.4397 50.0647 24.0023 51.1479 22.297 53.0368L21.6749 53.7259L16.0513 51.3933L16.0987 50.4638C16.2286 47.9238 15.2715 45.4356 13.4731 43.6372C11.6746 41.8389 9.18647 40.8807 6.64646 41.0115L5.71688 41.0591L3.38446 35.4354L4.07352 34.8133C5.96243 33.1081 7.04568 30.6705 7.04568 28.1258C7.04568 25.5811 5.96243 23.1436 4.07352 21.4383L3.38446 20.8162L5.7171 15.1926L6.64668 15.2401C9.18756 15.3696 11.6749 14.4129 13.4733 12.6144C15.2716 10.816 16.2287 8.32787 16.0989 5.78786L16.0514 4.85828L21.675 2.52576L22.2971 3.21482C24.0023 5.10372 26.4398 6.18697 28.9846 6.18697C31.5295 6.18697 33.9669 5.10372 35.6721 3.21482L36.2943 2.52576L41.9179 4.85828L41.8704 5.78786C41.7406 8.32787 42.6976 10.816 44.496 12.6144C46.2944 14.4127 48.7826 15.3702 51.3226 15.2401L52.2522 15.1926L54.5848 20.8162L53.8957 21.4383C52.0068 23.1436 50.9236 25.5811 50.9236 28.1258C50.9236 30.6705 52.0068 33.1081 53.8957 34.8133L54.5848 35.4354L52.2521 41.0591Z" fill="white"/>
<path d="M39.4349 38.634L35.424 34.623C34.0732 33.2721 31.9935 33.0282 30.3668 34.0299L28.3354 35.2808L21.8298 28.7751L23.0807 26.7438C24.0825 25.1171 23.8385 23.0374 22.4877 21.6867L18.4767 17.6757C16.8755 16.0746 14.2701 16.0743 12.6688 17.6758C8.77326 21.5713 8.77326 27.9097 12.6688 31.8053L25.3054 44.4419C27.1924 46.3289 29.7015 47.3682 32.3701 47.3682C35.0387 47.3682 37.5478 46.3289 39.4349 44.4419C41.0361 42.8406 41.0361 40.2352 39.4349 38.634ZM37.8881 42.8949C37.5595 43.2234 37.2057 43.5171 36.8328 43.7782L32.9576 39.9029C32.5305 39.476 31.8379 39.4759 31.4108 39.9029C30.9837 40.33 30.9836 41.0226 31.4108 41.4498L34.7664 44.8056C34.002 45.0512 33.1962 45.1807 32.3701 45.1807C30.2856 45.1807 28.3261 44.369 26.8522 42.8951L14.2155 30.2583C12.0791 28.1218 11.4451 25.045 12.309 22.3481L16.0437 26.0828C16.2573 26.2963 16.5372 26.4031 16.8171 26.4031C17.097 26.4031 17.377 26.2963 17.5905 26.0828C18.0176 25.6557 18.0176 24.9631 17.5905 24.5359L13.3332 20.2786C13.5921 19.9076 13.8847 19.5531 14.2154 19.2223C14.5896 18.8482 15.0811 18.661 15.5727 18.661C16.0641 18.661 16.5556 18.8482 16.9298 19.2223L20.9408 23.2333C21.5721 23.8645 21.6861 24.8364 21.2179 25.5967L19.514 28.3639C19.2483 28.7952 19.3137 29.3525 19.6719 29.7107L27.3997 37.4385C27.7578 37.7965 28.3152 37.8619 28.7465 37.5963L31.5137 35.8925C32.2741 35.4244 33.2459 35.5384 33.8772 36.1696L37.8881 40.1805C38.6364 40.929 38.6364 42.1465 37.8881 42.8949Z" fill="white"/>
<path d="M33.3819 27.0322H30.0937C30.1292 26.2643 30.7651 25.6503 31.5416 25.6503C33.1594 25.6503 34.4756 24.3342 34.4756 22.7164C34.4756 21.0986 33.1594 19.7824 31.5416 19.7824H28.9985C28.3944 19.7824 27.9047 20.2722 27.9047 20.8762C27.9047 21.4801 28.3944 21.9699 28.9985 21.9699H31.5416C31.9532 21.9699 32.2881 22.3048 32.2881 22.7164C32.2881 23.128 31.9532 23.4629 31.5416 23.4629C29.5363 23.4629 27.9047 25.0944 27.9047 27.0998V28.126C27.9047 28.7299 28.3944 29.2197 28.9985 29.2197H33.3819C33.9859 29.2197 34.4756 28.7299 34.4756 28.126C34.4756 27.522 33.9859 27.0322 33.3819 27.0322Z" fill="white"/>
<path d="M41.4795 19.8093C40.8755 19.8093 40.3858 20.299 40.3858 20.903V23.4568H38.1899V20.9321C38.1899 20.3281 37.7002 19.8384 37.0961 19.8384C36.492 19.8384 36.0024 20.3281 36.0024 20.9321V24.5506C36.0024 25.1545 36.492 25.6443 37.0961 25.6443H40.3858V28.1397C40.3858 28.7437 40.8755 29.2334 41.4795 29.2334C42.0836 29.2334 42.5733 28.7437 42.5733 28.1397V20.903C42.5733 20.299 42.0836 19.8093 41.4795 19.8093Z" fill="white"/>
</svg>

<svg width="57" height="57" fill="none" xmlns="http://www.w3.org/2000/svg"><path d="M18.025 13.063a1.098 1.098 0 0 0-1.54-.148l-.014.011a1.09 1.09 0 0 0-.141 1.534 1.097 1.097 0 0 0 1.54.147 1.09 1.09 0 0 0 .154-1.545zM28.984 8.439c-2.972 0-5.83.646-8.49 1.92a1.094 1.094 0 0 0 .944 1.973 17.34 17.34 0 0 1 7.546-1.706c9.65 0 17.5 7.85 17.5 17.5 0 2.067-.356 4.089-1.06 6.01a1.094 1.094 0 0 0 2.055.752 19.627 19.627 0 0 0 1.193-6.762c0-10.856-8.832-19.687-19.688-19.687z" fill="#fff"/><path d="M56.624 34.33l-1.263-1.14a6.833 6.833 0 0 1-2.25-5.064c0-1.927.82-3.773 2.25-5.064l1.263-1.14c.343-.31.454-.803.277-1.23l-2.924-7.05a1.092 1.092 0 0 0-1.066-.673l-1.7.087a6.825 6.825 0 0 1-5.168-1.988A6.828 6.828 0 0 1 44.055 5.9l.087-1.7a1.094 1.094 0 0 0-.674-1.067L36.419.21a1.094 1.094 0 0 0-1.23.278l-1.14 1.262A6.834 6.834 0 0 1 28.984 4a6.834 6.834 0 0 1-5.063-2.25L22.78.487a1.094 1.094 0 0 0-1.23-.278L14.5 3.133a1.094 1.094 0 0 0-.673 1.067l.086 1.7a6.828 6.828 0 0 1-1.988 5.168 6.825 6.825 0 0 1-5.168 1.988l-1.7-.087a1.094 1.094 0 0 0-1.066.673l-2.924 7.05c-.177.427-.066.92.277 1.23l1.263 1.14a6.833 6.833 0 0 1 2.25 5.064c0 1.927-.82 3.773-2.25 5.064l-1.263 1.14c-.343.31-.454.803-.277 1.23l2.924 7.05c.177.427.604.697 1.066.673l1.7-.087a6.824 6.824 0 0 1 5.168 1.988 6.828 6.828 0 0 1 1.988 5.168l-.087 1.7c-.023.462.246.89.674 1.066l7.05 2.924c.427.177.92.067 1.23-.277l1.14-1.262a6.833 6.833 0 0 1 5.063-2.25c1.927 0 3.773.82 5.064 2.25l1.14 1.262a1.093 1.093 0 0 0 1.23.277l7.05-2.924c.427-.177.697-.604.673-1.066l-.086-1.7a6.828 6.828 0 0 1 1.988-5.168 6.824 6.824 0 0 1 5.168-1.988l1.7.087a1.09 1.09 0 0 0 1.066-.673l2.924-7.05c.177-.427.066-.92-.277-1.23zm-4.372 6.73l-.93-.049a9.023 9.023 0 0 0-6.826 2.626 9.02 9.02 0 0 0-2.626 6.827l.048.93-5.624 2.332-.622-.69a9.024 9.024 0 0 0-6.687-2.971 9.024 9.024 0 0 0-6.688 2.972l-.622.689-5.624-2.333.048-.93a9.019 9.019 0 0 0-2.626-6.826 9.016 9.016 0 0 0-6.827-2.626l-.93.048-2.332-5.624.69-.622a9.024 9.024 0 0 0 2.972-6.687 9.024 9.024 0 0 0-2.972-6.688l-.69-.622 2.333-5.623.93.047a9.019 9.019 0 0 0 6.826-2.626A9.02 9.02 0 0 0 16.1 5.788l-.048-.93 5.624-2.332.622.689a9.024 9.024 0 0 0 6.688 2.972 9.024 9.024 0 0 0 6.687-2.972l.622-.69 5.624 2.333-.048.93a9.019 9.019 0 0 0 2.626 6.826 9.018 9.018 0 0 0 6.827 2.626l.93-.047 2.332 5.623-.69.622a9.024 9.024 0 0 0-2.971 6.688 9.024 9.024 0 0 0 2.972 6.687l.689.622-2.333 5.624z" fill="#fff"/><path d="M39.435 38.634l-4.011-4.011a4.093 4.093 0 0 0-5.057-.593l-2.032 1.25-6.505-6.505 1.25-2.031a4.092 4.092 0 0 0-.592-5.057l-4.011-4.011a4.111 4.111 0 0 0-5.808 0c-3.896 3.895-3.896 10.234 0 14.13l12.636 12.636a9.926 9.926 0 0 0 7.065 2.926 9.926 9.926 0 0 0 7.065-2.926 4.112 4.112 0 0 0 0-5.808zm-1.547 4.26a7.894 7.894 0 0 1-1.055.884l-3.875-3.875a1.094 1.094 0 0 0-1.547 1.547l3.355 3.356a7.823 7.823 0 0 1-2.396.375 7.752 7.752 0 0 1-5.518-2.286L14.216 30.258a7.81 7.81 0 0 1-1.907-7.91l3.735 3.735a1.09 1.09 0 0 0 1.546 0 1.094 1.094 0 0 0 0-1.547l-4.257-4.257a7.82 7.82 0 0 1 .882-1.057 1.914 1.914 0 0 1 1.358-.561c.491 0 .983.187 1.357.561l4.01 4.011c.632.631.746 1.603.278 2.364l-1.704 2.767c-.266.431-.2.988.158 1.347l7.728 7.727c.358.358.915.424 1.347.158l2.767-1.703a1.913 1.913 0 0 1 2.363.277l4.011 4.01a1.922 1.922 0 0 1 0 2.715z" fill="#fff"/><path d="M33.382 27.032h-3.288a1.451 1.451 0 0 1 1.448-1.382 2.937 2.937 0 0 0 2.934-2.934 2.937 2.937 0 0 0-2.934-2.934h-2.544a1.094 1.094 0 0 0 0 2.188h2.544a.747.747 0 0 1 0 1.493 3.641 3.641 0 0 0-3.637 3.637v1.026c0 .604.49 1.094 1.093 1.094h4.384a1.094 1.094 0 0 0 0-2.188zM41.48 19.81c-.604 0-1.094.489-1.094 1.093v2.554H38.19v-2.525a1.094 1.094 0 0 0-2.188 0v3.619c0 .604.49 1.093 1.094 1.093h3.29v2.496a1.094 1.094 0 0 0 2.187 0v-7.237c0-.604-.49-1.094-1.093-1.094z" fill="#fff"/></svg>
